assets/gi/gi-abstract-090.svg

<svg xmlns="http://www.w3.org/2000/svg" width="100%" height="100%" viewBox="-35.84 -35.84 583.68 583.68"><path d="m21,21v56.4c29.3773,0 53.1688,23.7914 53.1688,53.1687s-23.7914,53.1688-53.1688,53.1688v19.0937c29.3773,0 53.1688,23.7914 53.1688,53.1688s-23.7914,53.1688-53.1688,53.1688v19.0937c29.3773,0 53.1688,23.7915 53.1688,53.1688s-23.7914,53.1688-53.1688,53.1688v56.3999h56.4c0-29.3773 23.7914-53.1687 53.1688-53.1687s53.1687,23.7914 53.1687,53.1687h19.0938c0-29.3773 23.7914-53.1687 53.1688-53.1687s53.1687,23.7914 53.1687,53.1687h19.0937c0-29.3773 23.7915-53.1687 53.1688-53.1687s53.1688,23.7914 53.1688,53.1687h56.3999v-56.3999c-29.3773,0-53.1687-23.7914-53.1687-53.1688s23.7914-53.1688 53.1687-53.1688v-19.0937c-29.3773,0-53.1687-23.7914-53.1687-53.1688s23.7914-53.1688 53.1687-53.1688v-19.0937c-29.3773,0-53.1687-23.7914-53.1687-53.1688s23.7914-53.1687 53.1687-53.1687v-56.4h-56.3999c0,29.3773-23.7915,53.1688-53.1688,53.1688s-53.1688-23.7914-53.1688-53.1688h-19.0937c0,29.3773-23.7914,53.1688-53.1687,53.1688s-53.1688-23.7914-53.1688-53.1688h-19.0938c0,29.3773-23.7914,53.1688-53.1687,53.1688s-53.1688-23.7914-53.1688-53.1688h-56.4zm235.0001,112.0656c67.9121,0 122.9343,55.0221 122.9343,122.9344s-55.0222,122.9343-122.9343,122.9343-122.9344-55.0222-122.9344-122.9343 55.0223-122.9344 122.9344-122.9344zm0,38.1875c-46.8044,0-84.7469,37.9425-84.7469,84.7469s37.9425,84.7469 84.7469,84.7469 84.7468-37.9425 84.7468-84.7469-37.9425-84.7469-84.7468-84.7469z"/></svg>

<svg xmlns="http://www.w3.org/2000/svg" width="100%" height="100%" viewBox="-35.84 -35.84 583.68 583.68"><path d="M21 21v56.4c29.377 0 53.169 23.791 53.169 53.169S50.377 183.738 21 183.738v19.093c29.377 0 53.169 23.792 53.169 53.169S50.377 309.169 21 309.169v19.093c29.377 0 53.169 23.792 53.169 53.17S50.377 434.6 21 434.6V491h56.4c0-29.377 23.791-53.169 53.169-53.169s53.169 23.792 53.169 53.169h19.093c0-29.377 23.792-53.169 53.17-53.169s53.168 23.792 53.168 53.169h19.093c0-29.377 23.792-53.169 53.17-53.169S434.6 461.623 434.6 491H491v-56.4c-29.377 0-53.169-23.791-53.169-53.169s23.792-53.169 53.169-53.169V309.17c-29.377 0-53.169-23.792-53.169-53.169s23.792-53.169 53.169-53.169v-19.094c-29.377 0-53.169-23.79-53.169-53.168S461.623 77.4 491 77.4V21h-56.4c0 29.377-23.791 53.169-53.169 53.169S328.262 50.377 328.262 21H309.17c0 29.377-23.792 53.169-53.169 53.169S202.831 50.377 202.831 21h-19.094c0 29.377-23.79 53.169-53.168 53.169S77.4 50.377 77.4 21H21zm235 112.066c67.912 0 122.934 55.022 122.934 122.934S323.912 378.934 256 378.934 133.066 323.912 133.066 256 188.088 133.066 256 133.066zm0 38.187c-46.804 0-84.747 37.943-84.747 84.747s37.943 84.747 84.747 84.747 84.747-37.943 84.747-84.747-37.943-84.747-84.747-84.747z"/></svg>
